X: 347
T: The Caledonian Laddie
%R: reel
Z: 2014 John Chambers <jc:trillian.mit.edu>
B: Preston "Twenty four Country Dances for the Year 1798" p.154 #1
F: http://www.vwml.org/browse/browse-collections-dance-tune-books/browse-prestons1798# 2014-8-10
M: C|
L: 1/8
K: D
FE |\
D3E FEFA | BABd e3f | dcBA BdAF | GBE2- EGFE |\
D3E FEFA | BABd e3f | dcBA BdBG | FAD2 D2 :|
de |\
f2f2 gfed | cdec A2Bc | d2B2 Bcde | f2B2 B2cd |\
A3B AFEF | D2d2 d2cB | A2A2 BAGF | GBE2- EGFE |
D3E FEFA | d2de f2^D2 | E3F GEGB | e2ef g2ef |\
gfe^d eBe=d | cAce A2Bc | d2F2 EFGA | F2D2 D2 |]
% - - - - - - - - - - - - - - - - - - - - - - - - -
%%begintext align
%% Hey contrary Sides .| Hey on your own sides :| lead
%% down 2 Cu: up again & cast of lead thro the bottom come
%% up one Cu: lead thro the top & cast off
%%endtext
% - - - - - - - - - - - - - - - - - - - - - - - - -

%%sep 1 1 500
%%sep 1 1 500
